img/image/services-1.svg

<svg width="36" height="36" viewBox="0 0 36 36" fill="none" xmlns="http://www.w3.org/2000/svg">
<g id="icon">
<path id="Vector" d="M34.9453 21.9999V20.4318C34.9453 20.1405 34.7092 19.9045 34.418 19.9045C34.1267 19.9045 33.8906 20.1405 33.8906 20.4318V21.9995H28.8281V17.3046C28.8281 16.5978 28.2531 16.0228 27.5463 16.0228H25.2288V10.9603H29.6859C32.0044 10.9603 33.8906 12.8465 33.8906 15.165V17.9709C33.8906 18.2621 34.1267 18.4982 34.418 18.4982C34.7092 18.4982 34.9453 18.2621 34.9453 17.9709V15.165C34.9453 12.265 32.586 9.90563 29.6859 9.90563H25.0952C24.7475 8.85572 23.7571 8.09585 22.5921 8.09585H20.8435V6.0987C21.5608 6.06705 22.155 5.55567 22.3132 4.87828H27.5977C28.5883 4.88264 29.4258 4.04234 29.4258 3.05016C29.4258 2.04216 28.6057 1.22203 27.5977 1.22203H22.3132C22.1498 0.522633 21.5215 0 20.773 0H17.3364C16.5879 0 15.9596 0.522633 15.7962 1.22203H10.5117C9.5111 1.21669 8.68359 2.05291 8.68359 3.05016C8.68359 4.05816 9.50372 4.87828 10.5117 4.87828H15.7961C15.9543 5.55567 16.5486 6.06705 17.2659 6.0987V8.09585H15.5173C14.3522 8.09585 13.3619 8.85572 13.0141 9.90563H9.04992C8.83223 9.29187 8.24611 8.85101 7.55866 8.85101C6.87122 8.85101 6.28509 9.29187 6.06741 9.90563H0.527344C0.236109 9.90563 0 10.1417 0 10.433C0 10.7242 0.236109 10.9603 0.527344 10.9603H5.97656V16.0228H0.527344C0.236109 16.0228 0 16.2589 0 16.5502C0 16.8414 0.236109 17.0775 0.527344 17.0775H6.06727C6.28495 17.6913 6.87108 18.1323 7.55859 18.1323C8.24611 18.1323 8.8323 17.6913 9.04992 17.0775H13.014C13.3617 18.1275 14.352 18.8875 15.5172 18.8875H16.4088C16.7001 18.8875 16.9362 18.6514 16.9362 18.3601C16.9362 18.0689 16.7001 17.8328 16.4088 17.8328H15.5173C14.7277 17.8328 14.0714 17.2513 13.954 16.4941C13.9538 16.4921 13.9534 16.4903 13.9532 16.4884C13.9746 16.3915 13.9318 10.6786 13.9533 10.4936C13.9534 10.4925 13.9537 10.4915 13.9538 10.4903C14.0707 9.73259 14.7273 9.15054 15.5173 9.15054H22.5921C23.3821 9.15054 24.0386 9.73259 24.1556 10.4903C24.1557 10.4915 24.1559 10.4925 24.1561 10.4936C24.2377 11.1954 24.2273 15.8735 24.1562 16.4884C24.156 16.4903 24.1555 16.4922 24.1554 16.4941C24.0379 17.2513 23.3817 17.8328 22.5921 17.8328H18.8698C18.5786 17.8328 18.3425 18.0689 18.3425 18.3601C18.3425 18.6514 18.5786 18.8875 18.8698 18.8875H22.5921C23.7573 18.8875 24.7476 18.1275 25.0953 17.0775H27.5463C27.6716 17.0775 27.7734 17.1794 27.7734 17.3046V21.9999C27.1911 22.0045 26.7188 22.4793 26.7188 23.0626V24.1005C26.7188 24.6866 27.1957 25.1636 27.7819 25.1636H34.9369C35.5231 25.1636 36 24.6866 36 24.1005V23.0626C36 22.4793 35.5276 22.0045 34.9453 21.9999ZM22.355 2.27672H27.5977C28.0241 2.27672 28.3711 2.62371 28.3711 3.05016C28.3711 3.46866 28.018 3.8257 27.5977 3.82359H22.355V2.27672ZM15.7544 3.82359H10.5117C10.0853 3.82359 9.73828 3.4766 9.73828 3.05016C9.73828 2.62927 10.0902 2.27482 10.5117 2.27672H15.7544V3.82359ZM8.08594 16.5502C8.08594 16.841 7.84941 17.0776 7.55859 17.0776C7.26778 17.0776 7.03125 16.841 7.03125 16.5502V10.433C7.03125 10.1422 7.26778 9.90569 7.55859 9.90569C7.84941 9.90569 8.08594 10.1422 8.08594 10.433V16.5502ZM12.8805 16.0228H9.14062V10.9603H12.8805V16.0228ZM19.7888 8.09585H18.3206V6.10052H19.7888V8.09585ZM17.3364 5.04584C17.0456 5.04584 16.809 4.8093 16.809 4.51849V1.58203C16.809 1.29122 17.0456 1.05469 17.3364 1.05469H20.773C21.0638 1.05469 21.3003 1.29122 21.3003 1.58203V4.51849C21.3003 4.8093 21.0638 5.04584 20.773 5.04584H17.3364ZM34.9453 24.1005C34.9453 24.1051 34.9415 24.1089 34.9369 24.1089H27.7819C27.7772 24.1089 27.7734 24.1051 27.7734 24.1005V23.0626C27.7734 23.058 27.7772 23.0542 27.7819 23.0542H34.9369C34.9415 23.0542 34.9453 23.058 34.9453 23.0626V24.1005ZM31.8781 26.9882C31.592 26.7055 31.1266 26.7055 30.8407 26.988C29.8451 27.9715 27.5293 30.4452 27.5293 32.1713C27.5293 34.2824 29.2475 36 31.3594 36C33.4713 36 35.1894 34.2824 35.1894 32.1713C35.1894 30.4452 32.8737 27.9715 31.8781 26.9882ZM31.3594 34.9453C29.829 34.9453 28.584 33.7009 28.584 32.1713C28.584 31.5157 29.3163 30.0305 31.3594 27.9609C33.4027 30.0306 34.1348 31.5156 34.1348 32.1713C34.1348 33.7009 32.8897 34.9453 31.3594 34.9453Z" fill="url(#paint0_linear_4_97)"/>
</g>
<defs>
<linearGradient id="paint0_linear_4_97" x1="-25.425" y1="-23.5298" x2="42.3785" y2="-20.4953" gradientUnits="userSpaceOnUse">
<stop stop-color="#040E1D"/>
<stop offset="0.203125" stop-color="#0E305F"/>
<stop offset="0.395833" stop-color="#133F7B"/>
<stop offset="0.578125" stop-color="#19519D"/>
<stop offset="0.786458" stop-color="#1161CD"/>
<stop offset="1" stop-color="#1161CD"/>
</linearGradient>
</defs>
</svg>

<svg width="36" height="36" fill="none" xmlns="http://www.w3.org/2000/svg"><path d="M34.945 22v-1.568a.527.527 0 1 0-1.054 0V22h-5.063v-4.695c0-.707-.575-1.282-1.282-1.282H25.23V10.96h4.457a4.21 4.21 0 0 1 4.205 4.205v2.806a.527.527 0 0 0 1.054 0v-2.806c0-2.9-2.359-5.26-5.26-5.26h-4.59a2.64 2.64 0 0 0-2.503-1.81h-1.748V6.1a1.585 1.585 0 0 0 1.47-1.22h5.284c.99.004 1.828-.837 1.828-1.829a1.83 1.83 0 0 0-1.828-1.828h-5.285A1.584 1.584 0 0 0 20.773 0h-3.437c-.748 0-1.376.523-1.54 1.222h-5.284c-1-.005-1.828.83-1.828 1.828a1.83 1.83 0 0 0 1.828 1.828h5.284a1.585 1.585 0 0 0 1.47 1.22v1.998h-1.749a2.64 2.64 0 0 0-2.503 1.81H9.05A1.584 1.584 0 0 0 7.559 8.85c-.688 0-1.274.44-1.492 1.055H.527a.527.527 0 1 0 0 1.054h5.45v5.063H.527a.527.527 0 0 0 0 1.055h5.54a1.585 1.585 0 0 0 1.492 1.054c.687 0 1.273-.44 1.49-1.055h3.965a2.64 2.64 0 0 0 2.503 1.81h.892a.527.527 0 1 0 0-1.054h-.892c-.79 0-1.446-.582-1.563-1.339v-.006c.02-.096-.022-5.81 0-5.994v-.004a1.585 1.585 0 0 1 1.563-1.34h7.075c.79 0 1.447.583 1.564 1.34v.004c.082.701.071 5.38 0 5.994v.006a1.585 1.585 0 0 1-1.564 1.339H18.87a.527.527 0 0 0 0 1.055h3.722a2.64 2.64 0 0 0 2.503-1.81h2.451c.126 0 .227.101.227.227V22a1.064 1.064 0 0 0-1.054 1.063V24.1c0 .586.477 1.063 1.063 1.063h7.155c.586 0 1.063-.477 1.063-1.064v-1.037c0-.584-.472-1.058-1.055-1.063ZM22.355 2.277h5.243c.426 0 .773.347.773.773a.782.782 0 0 1-.773.774h-5.243V2.277Zm-6.6 1.547h-5.243a.774.774 0 0 1-.774-.774.78.78 0 0 1 .774-.773h5.242v1.547ZM8.084 16.55a.528.528 0 0 1-1.054 0v-6.117a.528.528 0 0 1 1.055 0v6.117Zm4.795-.527H9.14V10.96h3.74v5.063Zm6.909-7.927H18.32V6.1h1.468v1.995Zm-2.453-3.05a.528.528 0 0 1-.527-.528V1.582c0-.29.237-.527.527-.527h3.437c.29 0 .527.236.527.527v2.936c0 .291-.236.528-.527.528h-3.437ZM34.946 24.1a.008.008 0 0 1-.01.009h-7.154a.008.008 0 0 1-.009-.009v-1.037c0-.005.004-.009.009-.009h7.155c.005 0 .008.004.008.009V24.1Zm-3.068 2.888a.74.74 0 0 0-1.037 0c-.996.983-3.312 3.457-3.312 5.183A3.834 3.834 0 0 0 31.36 36a3.834 3.834 0 0 0 3.83-3.829c0-1.726-2.315-4.2-3.31-5.183Zm-.519 7.957a2.778 2.778 0 0 1-2.775-2.774c0-.655.732-2.14 2.775-4.21 2.044 2.07 2.776 3.555 2.776 4.21a2.778 2.778 0 0 1-2.776 2.774Z" fill="url(#a)"/><defs><linearGradient id="a" x1="-25.425" y1="-23.53" x2="42.379" y2="-20.495" gradientUnits="userSpaceOnUse"><stop stop-color="#040E1D"/><stop offset=".203" stop-color="#0E305F"/><stop offset=".396" stop-color="#133F7B"/><stop offset=".578" stop-color="#19519D"/><stop offset=".786" stop-color="#1161CD"/><stop offset="1" stop-color="#1161CD"/></linearGradient></defs></svg>
